!!!SOCIAL_FUNCTION:	songs of war
!!!PDT:	1913
!!!OTL: No_2_Odjib'we's_First_War_Song.krn
!!!REG: Great_Lakes
!!!LANG: Non-Tone
!!!LING_GROUP: Algonquin
**kern	**kern
*staff2	*staff1
=1-	=1-
*clefF4	*clefG2
*k[b-e-]	*k[b-e-]
*M5/8	*M5/8
8GG/L	8f/L
8GG/	8f/
8GG/	8f/
8GG/	(16f/L
.	16d/J)
8GG/J	8f/J
=2	=2
8GG/L	4.f/
8GG/	.
8GG/	.
8GG/	8c/L
8GG/J	8c/J
=3||	=3||
*M4/8	*M4/8
2r	8.c/L
.	16c/Jk
.	8e-/
.	8c/
=4	=4
2r	8B-/
.	8B-/
.	4B-/
=5||	=5||
*M5/8	*M5/8
3...r	[4.B-/
.	4B-/]
=6	=6
3...r	8B-/L
.	8B-/
.	8B-/
.	(16B-/L
.	16c/J)
.	8c/J
=7||	=7||
*M4/8	*M4/8
2r	2c/
=8	=8
2r	8e-/
.	8e-/
.	8.c/L
.	16B-/Jk
*	*clefF4
=9||	=9||
*M3/4	*M3/4
2.r	8B-\L
.	8B-\J
.	8B-\L
.	8B-\J
.	4B-\
=10||	=10||
*M5/8	*M5/8
3...r	[4.B-\
.	4B-\]
=11	=11
3...r	8d\L
.	8d\
.	8d\
.	(16c\L
.	16B-\J)
.	8c\J
=12||	=12||
*M3/4	*M3/4
2.r	2B-\
.	4G\
=13	=13
2.r	8G\L
.	8F\J
.	8F\L
.	8D\J
.	8D/L
.	8C/J
=14||	=14||
*M2/4	*M2/4
2r	8BB-/L
.	8BB-/J
.	4BB-/
=15	=15
2r	2BB-/
==	==
*-	*-
